!!!COM: Schubert, Franz
!!!CNT: Deutscher
!!!TXO: Deutsch
!!!OTL: "Die Stadt"
!!!OPR: Schwanengesang
!!!LYR: Heine, Heinrich
!!!ONM: No. 11
!!!ODT: 1828/
!!NB: Vocal melody only encoded.
**kern	**silbe
*clefG2	*
*k[b-e-a-]	*
*M3/4	*
*MM125	*
!! massig geschwind
=6	=6
4r	.
4r	.
8.r;	.
{16g	{Am
=7	=7
4..g	fer-
16g	-nen
8.g	Ho-
16g	-ri-
=8	=8
8a-	-zon-
8g	|
4g}	-te}
8.r	.
{16f	{er-
=9	=9
4a-	-scheint,
8a-	wie
8a-	ein
8.g	Ne-
16b-	-bel-
=10	=10
2a-}	-bild,}
8.r	.
{16cc	{die
=11	=11
4..cc	Stadt
16cc	mit
8.dd	ih-
16cc	-ren
=12	=12
4cc	Thu2r-
4bn}	-men,}
8.r	.
{16cc	{in
=13	=13
8.ee-	A-
16ee-	-bend-
4ee-	-da2mm'-
8.dd	-rung
16dd	ge-
=14	=14
2cc}	-hu2llt.}
4r	.
=17	=17
4r	.
4r	.
8r	.
{8cc	{Ein
=18	=18
8.cc	feuch-
16cc	-ter
4.ee-	Wind-
8dd	-zug
=19	=19
4dd	kra2u-
4cc}	-selt}
8r	.
{8b-	{die
=20	=20
8.an	grau-
16an	-e
4.cc	Was-
8b-	-ser-
=21	=21
2an}	-behn;}
8r	.
{8f#	{mit
=22	=22
8f#	trau-
16f#	-rig-
16f#	-em
4.f#	Tak-
8f#	-te
=23	=23
4an	ru-
4f#}	-dert}
8r	.
{8d	{der
=24	=24
4e-	Schif-
8e-	-fer
8e-	in
8e-	mei-
8e-	-nem
=25	=25
2c}	Kahn.}
4r	.
=27	=27
4r	.
4r	.
8.r;	.
{16g	{Die
=28	=28
8.g	Son-
16g	-ne
4g	hebt
8.g	sich
16g	noch
=29	=29
4a-	ein-
8g-}	-mal}
8r	.
{12f	{leuch-
12en	-tend
12f	vom
=30	=30
2cc	Bo-
8.c	-den
16c	em-
=31	=31
2f}	-por,}
8.r	.
{16cc	{und
=32	=32
8.cc	zeigt
16cc	mir
4..dd	-je-
16cc	-ne
=33	=33
4cc	Stel-
8bn}	-le,}
8r	.
{12cc	{wo
12bn	ich
12cc	das
=34	=34
2gg	Lieb-
8.bn	-ste
16bn	ver-
=35	=35
2cc}	-lor.}
4r	.
*-	*-
